!!!COM: Music21
!!!OTL: Herba Cabreira
!!!OMV: pezas_polca_herba-cabreira_herba-cabreira-partitura.musicxml
**kern
*part1
*staff1
*I"Gaita
*I'Bag
*clefG^2
*k[]
*M2/4
*MM100
=1
!LO:TX:a:t=[quarter]=100
4r
8r
16eeLL
16ffJJ
=||
8ggL
8ggJ
8ggL
8cccJ
.
=
8aaL
8aaJ
8aaL
8cccJ
.
=
8ffL
8ffJ
.
16ffLL
16gg
16aa
16ffJJ
=
16ggLL
16aa
16gg
16ffJJ
16eeLL
16dd
16ee
16ffJJ
=
8ggL
.
8ggJ
.
8ggL
.
16cccL
16ggJJ
!!linebreak:original
=
8aaL
.
8aaJ
.
8aaL
.
16cccL
16aaJJ
=
8bbL
8bbJ
16bbLL
16ccc
16ddd
16bbJJ
=
8cccL
8cccJ
8cccL
16eeL
16ffJJ
=||
8ggL
8ggJ
8ggL
8cccJ
.
=
8aaL
8aaJ
8aaL
8cccJ
.
=
8ffL
8ffJ
.
16ffLL
16gg
16aa
16ffJJ
!!linebreak:original
=
16ggLL
16aa
16gg
16ffJJ
16eeLL
16dd
16ee
16ffJJ
=
8ggL
.
8ggJ
.
8ggL
.
16cccL
16ggJJ
!!linebreak:original
=
8aaL
.
8aaJ
.
8aaL
.
16cccL
16aaJJ
=
8bbL
8bbJ
16bbLL
16ccc
16ddd
16bbJJ
=||
8cccL
8cccJ
8ccc
8r
.
=||
*k[b-e-a-]
8ggL
.
8ggJ
.
8ggL
.
8cccJ
.
!!linebreak:original
=
8aa-L
.
8aa-J
.
8aa-L
.
8cccJ
.
=
16ggLL
16aa-
16aa-
16ggJJ
16ggLL
16ff
16ff
16ee-JJ
=
16ee-LL
16ff
16ee-
16ddJJ
16ccLL
16dd
16ee-
16ffJJ
=
16ggLL
16aa-
16gg
16cccJJ
16ggLL
16aa-
16gg
16cccJJ
!!pagebreak:original
=
16ffLL
16gg
16ff
16cccJJ
16ffLL
16gg
16ff
16cccJJ
!!linebreak:original
=
16bbnLL
16aa-
16aa-
16ggJJ
16ffLL
16gg
16dd
16ggJJ
=
8cc
8r
4r
.
.
=||
8ggL
.
8ggJ
.
8ggL
.
8cccJ
.
!!linebreak:original
=
8aa-L
.
8aa-J
.
8aa-L
.
8cccJ
.
=
16ggLL
16aa-
16aa-
16ggJJ
16ggLL
16ff
16ff
16ee-JJ
=
16ee-LL
16ff
16ee-
16ddJJ
16ccLL
16dd
16ee-
16ffJJ
=
16ggLL
16aa-
16gg
16cccJJ
16ggLL
16aa-
16gg
16cccJJ
!!linebreak:original
=
16ffLL
16gg
16ff
16cccJJ
16ffLL
16gg
16ff
16cccJJ
!!linebreak:original
=
16bbnLL
16aa-
16aa-
16ggJJ
16ffLL
16gg
16dd
16ggJJ
=
8ccL
8ccJ
8ccL
16ggL
16ffJJ
=||
*k[]
16ee
8r
[16ee
8eeL]
16ddL
16eeJJ
=
[4cc
16ccLL]
16ee
16gg
16eeJJ
=
16ff
8r
8ffL
16ggL
16ee
16ffJJ
!!linebreak:original
=
4.dd
.
16ggLL
16aaJJ
=
16bbLL
16ccc
16aa
16bbJJ
16ggLL
16aa
16ff
16eeJJ
=
8.ddL
8dd
16eeL
16ff
16ddJJ
=
16eeKL
8ff
8ff#X
16ggK
8aaJ
=
4.gg
16ggLL
16ffJJ
=
16ee
8r
[16ee
8eeL]
16ddL
16eeJJ
!!pagebreak:original
=
[4cc
16ccLL]
16ee
16gg
16eeJJ
=
16ff
8r
8ffL
16ccL
16ff
16ggJJ
!!pagebreak:original
=
4.aa
16bb-XLL
16aaJJ
=
16ggKL
8bb-X
16ggJk
16cccLL
16bb-
16aa
16ggJJ
=
16ffKL
8aa
16ffJk
16cccLL
16aa
16ff
16ccJJ
=
16ddLL
16ff
16bb-X
16eeJJ
16ggLL
16ccc
16bb-
16ggJJ
=
8ffL
8ffJ
8ffL
16ggL
16ffJJ
=||
16ee
8r
[16ee
8eeL]
16ddL
16eeJJ
!!linebreak:original
=
[4cc
16ccLL]
16ee
16gg
16eeJJ
=
16ff
8r
8ffL
16ggL
16ee
16ffJJ
!!linebreak:original
=
4.dd
.
16ggLL
16aaJJ
=
16bbLL
16ccc
16aa
16bbJJ
16ggLL
16aa
16ff
16eeJJ
=
8.ddL
8dd
16eeL
16ff
16ddJJ
=
16eeKL
8ff
8ff#X
16ggK
8aaJ
=
4.gg
16ggLL
16ffJJ
=
16ee
8r
[16ee
8eeL]
16ddL
16eeJJ
!!linebreak:original
=
[4cc
16ccLL]
16ee
16gg
16eeJJ
=
16ff
8r
8ffL
16ccL
16ff
16ggJJ
!!pagebreak:original
=
4.aa
16bb-XLL
16aaJJ
=
16ggKL
8bb-X
16ggJk
16cccLL
16bb-
16aa
16ggJJ
=
16ffKL
8aa
16ffJk
16cccLL
16aa
16ff
16ccJJ
=
16ddLL
16ff
16bb-X
16eeJJ
16ggLL
16ccc
16bb-
16ggJJ
=
8ffL
8ffJ
8ffL
16eeL
16ffJJ
=||
8cccL
8cccJ
8ccc
8r
==
*-
!!!system-decoration: s1,s2
!!!RDF**kern: i = editorial accidental
